src/svg/document.svg

<svg version="1.2" baseProfile="tiny" xmlns="http://www.w3.org/2000/svg" width="24" height="24" viewBox="0 0 24 24"><path d="M19.707 7.293l-4-4c-.187-.188-.441-.293-.707-.293h-8c-1.654 0-3 1.346-3 3v12c0 1.654 1.346 3 3 3h10c1.654 0 3-1.346 3-3v-10c0-.266-.105-.52-.293-.707zm-2.121.707h-1.086c-.827 0-1.5-.673-1.5-1.5v-1.086l2.586 2.586zm-.586 11h-10c-.552 0-1-.448-1-1v-12c0-.552.448-1 1-1h7v1.5c0 1.379 1.121 2.5 2.5 2.5h1.5v9c0 .552-.448 1-1 1z"/></svg>

<?xml version="1.0" encoding="iso-8859-1"?>
<!-- Generator: Adobe Illustrator 16.2.1, SVG Export Plug-In . SVG Version: 6.00 Build 0)  -->
<svg version="1.2" baseProfile="tiny" id="Layer_1" xmlns="http://www.w3.org/2000/svg" xmlns:xlink="http://www.w3.org/1999/xlink"
	 x="0px" y="0px" width="24px" height="24px" viewBox="0 0 24 24" xml:space="preserve">
<path d="M19.707,7.293l-4-4C15.52,3.105,15.266,3,15,3H7C5.346,3,4,4.346,4,6v12c0,1.654,1.346,3,3,3h10c1.654,0,3-1.346,3-3V8
	C20,7.734,19.895,7.48,19.707,7.293z M17.586,8H16.5C15.673,8,15,7.327,15,6.5V5.414L17.586,8z M17,19H7c-0.552,0-1-0.448-1-1V6
	c0-0.552,0.448-1,1-1h7v1.5C14,7.879,15.121,9,16.5,9H18v9C18,18.552,17.552,19,17,19z"/>
</svg>
